SVG_Azure_Grouped/IoT/IoT Hub Built-in Endpoint.svg

<?xml version="1.0" encoding="UTF-8" standalone="no"?>
<!-- Generated by Microsoft Visio, SVG Export IoT Hub Built-in Endpoint.svg Page-1 -->

<svg
   xmlns:dc="http://purl.org/dc/elements/1.1/"
   xmlns:cc="http://creativecommons.org/ns#"
   xmlns:rdf="http://www.w3.org/1999/02/22-rdf-syntax-ns#"
   xmlns:svg="http://www.w3.org/2000/svg"
   xmlns="http://www.w3.org/2000/svg"
   xmlns:sodipodi="http://sodipodi.sourceforge.net/DTD/sodipodi-0.dtd"
   xmlns:inkscape="http://www.inkscape.org/namespaces/inkscape"
   width="0.78854889in"
   height="0.5118103in"
   viewBox="0 0 56.775605 36.850239"
   xml:space="preserve"
   class="st3"
   version="1.1"
   id="svg29"
   sodipodi:docname="IoT Hub Built-in Endpoint.svg"
   style="font-size:12px;overflow:visible;color-interpolation-filters:sRGB;fill:none;fill-rule:evenodd;stroke-linecap:square;stroke-miterlimit:3"
   inkscape:version="0.92.5 (2060ec1f9f, 2020-04-08)"><metadata
   id="metadata35"><rdf:RDF><cc:Work
       rdf:about=""><dc:format>image/svg+xml</dc:format><dc:type
         rdf:resource="http://purl.org/dc/dcmitype/StillImage" /></cc:Work></rdf:RDF></metadata><defs
   id="defs33" /><sodipodi:namedview
   pagecolor="#ffffff"
   bordercolor="#666666"
   borderopacity="1"
   objecttolerance="10"
   gridtolerance="10"
   guidetolerance="10"
   inkscape:pageopacity="0"
   inkscape:pageshadow="2"
   inkscape:window-width="640"
   inkscape:window-height="480"
   id="namedview31"
   showgrid="false"
   inkscape:zoom="1.5615307"
   inkscape:cx="37.912086"
   inkscape:cy="24.566897"
   inkscape:window-x="0"
   inkscape:window-y="0"
   inkscape:window-maximized="0"
   inkscape:current-layer="svg29" />
	<style
   type="text/css"
   id="style2">
	<![CDATA[
		.st1 {fill:#ff8c00;stroke:none;stroke-linecap:butt;stroke-width:38.25}
		.st2 {fill:#7a7a7a;stroke:none;stroke-linecap:butt;stroke-width:38.25}
		.st3 {fill:none;fill-rule:evenodd;font-size:12px;overflow:visible;stroke-linecap:square;stroke-miterlimit:3}
	]]>
	</style>

	<g
   id="g27"
   transform="translate(-38.162395,-38.250047)">
		<title
   id="title4">Page-1</title>
		<g
   id="group20568-1"
   transform="translate(38.25,-38.25)">
			<title
   id="title6">IoT Hub Built-in Endpoint.20568</title>
			<g
   id="group20569-2">
				<title
   id="title8">Sheet.20569</title>
				<g
   id="shape20570-3"
   transform="translate(16.198,-16.378)">
					<title
   id="title10">Sheet.20570</title>
					<path
   d="m 0,109.26 h 40.49 v 4.09 H 0 Z"
   class="st1"
   id="path12"
   inkscape:connector-curvature="0"
   style="fill:#ff8c00;stroke:none;stroke-width:38.25;stroke-linecap:butt" />
				</g>
				<g
   id="shape20571-5"
   transform="translate(10.2293,-10.5269)">
					<title
   id="title15">Sheet.20571</title>
					<path
   d="m 7.99,113.35 a 7.81552,7.90236 0 1 1 0,-15.8 7.81552,7.90236 0 0 1 0,15.8 z"
   class="st1"
   id="path17"
   inkscape:connector-curvature="0"
   style="fill:#ff8c00;stroke:none;stroke-width:38.25;stroke-linecap:butt" />
				</g>
				<g
   id="shape20572-7">
					<title
   id="title20">Sheet.20572</title>
					<path
   d="m 21.9,76.87 c 7.21,2.18 10.34,5.12 13.16,11.91 H 30.75 C 28.84,83.32 23.48,81.13 18.22,80.59 a 14.177453,14.335 -180 1 0 0,28.67 c 5.45,-0.2 10.38,-3.03 12.53,-8.19 h 4.31 c -2.42,7.91 -9.12,11.49 -16.84,12.28 a 18.2227,18.4252 0 1 1 0,-36.85 z"
   class="st2"
   id="path22"
   inkscape:connector-curvature="0"
   style="fill:#7a7a7a;stroke:none;stroke-width:38.25;stroke-linecap:butt" />
				</g>
			</g>
		</g>
	</g>
</svg>

<?xml version="1.0" encoding="UTF-8" standalone="no"?>
<!DOCTYPE svg PUBLIC "-//W3C//DTD SVG 1.1//EN" "http://www.w3.org/Graphics/SVG/1.1/DTD/svg11.dtd">
<!-- Generated by Microsoft Visio, SVG Export IoT Hub Built-in Endpoint.svg Page-1 -->
<svg xmlns="http://www.w3.org/2000/svg" xmlns:xlink="http://www.w3.org/1999/xlink" xmlns:ev="http://www.w3.org/2001/xml-events"
		width="1.8499in" height="1.57431in" viewBox="0 0 133.193 113.35" xml:space="preserve" color-interpolation-filters="sRGB"
		class="st3">
	<style type="text/css">
	<![CDATA[
		.st1 {fill:#ff8c00;stroke:none;stroke-linecap:butt;stroke-width:38.25}
		.st2 {fill:#7a7a7a;stroke:none;stroke-linecap:butt;stroke-width:38.25}
		.st3 {fill:none;fill-rule:evenodd;font-size:12px;overflow:visible;stroke-linecap:square;stroke-miterlimit:3}
	]]>
	</style>

	<g>
		<title>Page-1</title>
		<g id="group20113-1" transform="translate(38.25,-38.25)">
			<title>IoT Hub Built-in Endpoint.20113</title>
			<g id="group20114-2">
				<title>Sheet.20114</title>
				<g id="shape20115-3" transform="translate(16.198,-16.378)">
					<title>Sheet.20115</title>
					<path d="M0 109.26 L40.49 109.26 L40.49 113.35 L0 113.35 L0 109.26 Z" class="st1"/>
				</g>
				<g id="shape20116-5" transform="translate(10.2293,-10.5269)">
					<title>Sheet.20116</title>
					<path d="M7.99 113.35 A7.81552 7.90236 0 1 1 7.99 97.55 A7.81552 7.90236 0 0 1 7.99 113.35 Z" class="st1"/>
				</g>
				<g id="shape20117-7">
					<title>Sheet.20117</title>
					<path d="M21.9 76.87 C29.11 79.05 32.24 81.99 35.06 88.78 L30.75 88.78 C28.84 83.32 23.48 81.13 18.22 80.59 A14.1732
								 14.3307 -180 1 0 18.22 109.26 C23.67 109.06 28.6 106.23 30.75 101.07 L35.06 101.07 C32.64 108.98
								 25.94 112.56 18.22 113.35 A18.2227 18.4252 0 1 1 18.22 76.5 L21.9 76.87 Z" class="st2"/>
				</g>
			</g>
		</g>
	</g>
</svg>
